vendor/shopware/storefront/Resources/app/storefront/dist/assets/icon/default/view-grid.svg

<svg xmlns="http://www.w3.org/2000/svg" width="24" height="24" viewBox="0 0 24 24">
  <path fill="#758CA3" fill-rule="evenodd" d="M2,2 L2,9 L9,9 L9,2 L2,2 Z M2,-6.69744208e-15 L9,-6.69744208e-15 C10.1045695,-7.30833579e-15 11,0.8954305 11,2 L11,9 C11,10.1045695 10.1045695,11 9,11 L2,11 C0.8954305,11 1.24549377e-15,10.1045695 1.11022302e-15,9 L-2.22044605e-16,2 C-3.57315355e-16,0.8954305 0.8954305,-6.45842971e-15 2,-6.69744208e-15 Z M15,-6.69744208e-15 L22,-6.69744208e-15 C23.1045695,-5.88320625e-15 24,0.8954305 24,2 L24,9 C24,10.1045695 23.1045695,11 22,11 L15,11 C13.8954305,11 13,10.1045695 13,9 L13,2 C13,0.8954305 13.8954305,-6.45844326e-15 15,-6.69744208e-15 Z M15,2 L15,9 L22,9 L22,2 L15,2 Z M2,13 L9,13 C10.1045695,13 11,13.8954305 11,15 L11,22 C11,23.1045695 10.1045695,24 9,24 L2,24 C0.8954305,24 8.94280938e-16,23.1045695 -2.22044605e-16,22 L-9.86076132e-32,15 C-1.3527075e-16,13.8954305 0.8954305,13 2,13 Z M2,15 L2,22 L9,22 L9,15 L2,15 Z M15,13 L22,13 C23.1045695,13 24,13.8954305 24,15 L24,22 C24,23.1045695 23.1045695,24 22,24 L15,24 C13.8954305,24 13,23.1045695 13,22 L13,15 C13,13.8954305 13.8954305,13 15,13 Z M15,22 L22,22 L22,15 L15,15 L15,22 Z"/>
</svg>

<svg xmlns="http://www.w3.org/2000/svg" width="24" height="24" viewBox="0 0 24 24"><path fill="#758CA3" fill-rule="evenodd" d="M2 2v7h7V2H2zm0-2h7c1.1046 0 2 .8954 2 2v7c0 1.1046-.8954 2-2 2H2c-1.1046 0-2-.8954-2-2V2C0 .8954.8954 0 2 0zm13 0h7c1.1046 0 2 .8954 2 2v7c0 1.1046-.8954 2-2 2h-7c-1.1046 0-2-.8954-2-2V2c0-1.1046.8954-2 2-2zm0 2v7h7V2h-7zM2 13h7c1.1046 0 2 .8954 2 2v7c0 1.1046-.8954 2-2 2H2c-1.1046 0-2-.8954-2-2v-7c0-1.1046.8954-2 2-2zm0 2v7h7v-7H2zm13-2h7c1.1046 0 2 .8954 2 2v7c0 1.1046-.8954 2-2 2h-7c-1.1046 0-2-.8954-2-2v-7c0-1.1046.8954-2 2-2zm0 9h7v-7h-7v7z"/></svg>
